X:250
T:Lilo's Jig
C:Svante Kvarnström
O:Sweden
H:Lilo is one of the Hellsing family's very friendly border collies.
Z:Svante Kvarnström
R:jig
M:6/8
L:1/8
K:D
B3 dcB|AFE D2B,|A,3 F3|FED EFA|
BAB dcB|AFE D2B,|A,2 D CDE|1FDD DFA:|2FDD DFD||
|:E3 GFE|FAd AFD|EDE GFE|DB,A, B,2A,|
E3 GFE|FAd GBd|A2d cde|1fdc dAF:|2fdc d3|]
